X:434
T:Ou est allee ma douce amie?
Z:Jack Campin, http://www.campin.me.uk/
F:Jack Campin's Nine-Note Tunebook
% last edit 30-08-2015
G:Breton song collected by Jean Audic
S:http://stagemydriase.jimdo.com/photos-sons/stage-d-aout/
M:5/8
L:1/8
Q:3/8=96
K:AMin %Transposed from DDor
ABc A2|ddc BA |ABc A2 |ddc BA |
ABc A2|ddc B2-|B3- B2||
Bdc A2|BcA GA |Bdc A2 |BcA GA |
Bdc A2|BcA GA |Bdc A2 |BcA GA-|A3-A2|]


